X: 470
T: Mai cai
%%abc-version 2.0
%%abcx-abcm2ps-target-version 5.9.1 (29 Sep 2008)
%%abc-creator hum2abc beta
%%abcx-conversion-date 2013/10/02 07:52:30
%%abc-edited-by Helmut Schaffrath
%%humdrum-veritas 3364385832
%%humdrum-veritas-data 1794104010
%%continueall 1
%%barnumbers 0
L: 1/8
M: 2/4
K: F
d d c d [I:setbarnb 1]| 
c d f d | 
c2-c3/ A/ | 
d d/ d/ c d | 
c AG2 | 
F> G A A | 
c> A c3/ d/ | 
F DC2 | 
c2A c | 
GF2D | 
C4 |]  



